src/assets/img/svgs/isolated-railway.svg

<?xml version="1.0" encoding="UTF-8"?>
<svg width="256px" height="256px" viewBox="0 0 256 256" version="1.1" xmlns="http://www.w3.org/2000/svg" xmlns:xlink="http://www.w3.org/1999/xlink">
    <!-- Generator: Sketch 58 (84663) - https://sketch.com -->
    <title>Icon / Modes / Isolated / Railway / NO NR</title>
    <desc>Created with Sketch.</desc>
    <g id="Icon-/-Modes-/-Isolated-/-Railway-/-NO-NR" stroke="none" stroke-width="1" fill="none" fill-rule="evenodd">
        <path d="M168.254395,201 C170.476045,201 172.612247,201.894531 174.181074,203.490924 L197.542577,227.048048 C198.564536,228.183414 197.761324,230 196.247184,230 L180.613605,230 C178.337268,230 176.224992,228.799264 175.052644,226.834737 L161.257907,203.707676 C160.543561,202.517262 161.398042,201 162.778883,201 L168.254395,201 Z M91.2211494,201 C92.6019513,201 93.45299,202.517262 92.7455,203.707676 L78.9408994,226.834737 C77.7720028,228.799264 75.663204,230 73.3869317,230 L57.7572119,230 C56.239697,230 55.4365078,228.183414 56.4550201,227.048048 L79.8192808,203.490924 C81.3880631,201.894531 83.5207867,201 85.7457917,201 L91.2211494,201 Z M127.242029,32.0016058 C127.797317,32.0053394 129.138586,32.0144927 129.351944,32.01721 C146.815778,32.3235485 161.433401,34.3577737 172.24011,37.8755033 C172.264057,37.8858293 172.294845,37.8927133 172.318792,37.8995974 C172.335896,37.9064814 172.356422,37.9133654 172.376948,37.9236914 C182.851827,41.1970386 187.7677,44.611508 190.107614,50.0120145 C190.894427,51.7984154 191.400725,53.8188726 191.71545,56.1456683 C191.71545,56.1456683 203.989737,111.104169 204,135.466684 C204,136.196389 203.92474,140.244188 203.92474,140.24763 C203.103717,165.229705 190.891006,191 170.779374,191 L83.2173178,191 C63.1056859,191 50.8895543,165.229705 50.0719527,140.24763 C50.0719527,140.244188 49.9966923,136.196389 50,135.466684 C50.006955,111.104169 62.2778215,56.1456683 62.2778215,56.1456683 C62.5993886,53.8188726 63.102265,51.7984154 63.8890783,50.0120145 C66.2289926,44.611508 71.1380233,41.1970386 81.6197447,37.9236914 C81.6436912,37.9133654 81.6573749,37.9064814 81.6813214,37.8995974 C81.7086889,37.8927133 81.7326353,37.8858293 81.7565818,37.8755033 C92.5632914,34.3577737 107.177493,32.3235485 124.644748,32.01721 C124.858106,32.0144927 126.203639,32.0053394 126.760723,32.0016058 L127.242029,32.0016058 Z M174.008649,132 C168.490573,132.034394 164,136.474635 164,141.991402 C164,147.490972 168.490573,151.965606 174.008649,152 C179.530185,151.965606 184,147.490972 184,141.991402 C184,136.474635 179.530185,132.034394 174.008649,132 Z M79.9896194,132 C74.4740484,132.034394 70,136.474635 70,141.991402 C70,147.490972 74.4740484,151.965606 79.9896194,152 C85.5121107,151.965606 90,147.490972 90,141.991402 C90,136.474635 85.5121107,132.034394 79.9896194,132 Z M110.883337,60 L84.0943918,60 C82.8026171,60 81.0768335,60.5340472 80.4480332,63.1056378 C77.1605009,76.6983307 74.0711774,96.9104882 73.0391246,111.152882 C72.7794027,112.965921 73.8217077,114 75.8994828,114 L110.367311,114 C113.220834,114 114,112.710803 114,110.118803 L114,62.8471181 C114,60.7789606 112.445086,60 110.883337,60 Z M170.903113,60 L144.11982,60 C142.554784,60 141,60.7789606 141,62.8471181 L141,110.118803 C141,112.710803 141.782518,114 144.63922,114 L179.104173,114 C181.178357,114 182.220575,112.965921 181.960875,111.152882 C180.928908,96.9104882 177.839843,76.6983307 174.549168,63.1056378 C173.927254,60.5340472 172.201614,60 170.903113,60 Z" id="Combined-Shape" fill="#42194F"></path>
    </g>
</svg>

<svg width="256" height="256" xmlns="http://www.w3.org/2000/svg"><path d="M168.254 201c2.222 0 4.358.895 5.927 2.49l23.362 23.558c1.022 1.135.218 2.952-1.296 2.952h-15.633a6.479 6.479 0 01-5.561-3.165l-13.795-23.127c-.714-1.19.14-2.708 1.52-2.708h5.476zm-77.033 0c1.381 0 2.232 1.517 1.525 2.708L78.94 226.835A6.463 6.463 0 0173.387 230h-15.63c-1.517 0-2.32-1.817-1.302-2.952l23.364-23.557A8.305 8.305 0 0185.746 201h5.475zm36.021-168.998c.555.003 1.897.012 2.11.015 17.464.307 32.081 2.34 42.888 5.859.024.01.055.017.079.024.017.006.037.013.058.024 10.475 3.273 15.39 6.688 17.73 12.088.787 1.786 1.294 3.807 1.608 6.134 0 0 12.275 54.958 12.285 79.32 0 .73-.075 4.778-.075 4.782C203.104 165.23 190.89 191 170.779 191H83.217c-20.111 0-32.327-25.77-33.145-50.752 0-.004-.075-4.052-.072-4.781.007-24.363 12.278-79.321 12.278-79.321.321-2.327.824-4.348 1.611-6.134 2.34-5.4 7.249-8.815 17.73-12.088.025-.01.038-.018.062-.024a.482.482 0 00.076-.024c10.806-3.518 25.42-5.552 42.888-5.859.213-.003 1.559-.012 2.116-.015h.481zM174.009 132c-5.518.034-10.009 4.475-10.009 9.991 0 5.5 4.49 9.975 10.009 10.009 5.521-.034 9.991-4.509 9.991-10.009 0-5.516-4.47-9.957-9.991-9.991zm-94.02 0c-5.515.034-9.989 4.475-9.989 9.991 0 5.5 4.474 9.975 9.99 10.009 5.522-.034 10.01-4.509 10.01-10.009 0-5.516-4.488-9.957-10.01-9.991zm30.894-72H84.094c-1.291 0-3.017.534-3.646 3.106-3.287 13.592-6.377 33.804-7.409 48.047-.26 1.813.783 2.847 2.86 2.847h34.468c2.854 0 3.633-1.29 3.633-3.881V62.847c0-2.068-1.555-2.847-3.117-2.847zm60.02 0H144.12c-1.565 0-3.12.779-3.12 2.847v47.272c0 2.592.783 3.881 3.64 3.881h34.464c2.074 0 3.117-1.034 2.857-2.847-1.032-14.243-4.121-34.455-7.412-48.047-.622-2.572-2.347-3.106-3.646-3.106z" fill="#42194F" fill-rule="evenodd"/></svg>
